dist/images/logo-shopify.svg

<svg width="127" height="37" viewBox="0 0 127 37" fill="none" xmlns="http://www.w3.org/2000/svg">
<path d="M15.1323 1.26027C15.3846 1.26027 15.5107 1.38626 15.7629 1.51226C14.2495 2.14222 12.7361 3.78013 11.9793 7.30794L9.20472 8.0639C10.0876 5.54404 11.8532 1.26027 15.1323 1.26027ZM16.5196 2.5202C16.7719 3.27616 17.0241 4.15811 17.0241 5.54404C17.0241 5.67003 17.0241 5.67003 17.0241 5.79602L13.3666 6.80397C14.1234 4.15811 15.3846 3.02417 16.5196 2.5202ZM19.7987 4.78808L18.1592 5.29205C18.1592 5.16606 18.1592 5.04006 18.1592 4.91407C18.1592 3.78013 18.0331 2.89818 17.7808 2.14222C18.6636 2.39421 19.4204 3.52815 19.7987 4.78808ZM27.9965 6.80397C27.9965 6.67797 27.8703 6.55198 27.7442 6.55198C27.492 6.55198 24.8435 6.29999 24.8435 6.29999C24.8435 6.29999 22.9517 4.4101 22.6995 4.2841C22.4472 4.03212 22.0689 4.15811 21.9427 4.15811C21.9427 4.15811 21.5644 4.2841 20.9338 4.53609C20.3032 2.77219 19.1681 1.13428 17.2763 1.13428H17.1502C16.6457 0.378319 15.889 0.126333 15.2584 0.126333C10.7181 0.000339866 8.57412 5.67003 7.81741 8.56787C6.80846 8.81986 5.7995 9.19783 4.66443 9.57581C3.65548 9.8278 3.65548 9.95379 3.52936 10.8357C3.40324 11.4657 0.880859 31.3726 0.880859 31.3726L20.9338 35.1524L31.78 32.7585C31.78 32.7585 27.9965 7.05595 27.9965 6.80397Z" fill="#8DB849"/>
<path d="M27.6167 6.55134C27.4906 6.55134 24.8421 6.29935 24.8421 6.29935C24.8421 6.29935 22.9503 4.40946 22.698 4.28346C22.5719 4.15747 22.5719 4.15747 22.4458 4.15747L20.9324 35.1518L31.7786 32.7579C31.7786 32.7579 27.995 7.05531 27.995 6.80332C27.995 6.67733 27.7428 6.55134 27.6167 6.55134Z" fill="#5A863E"/>
<path d="M17.2796 12.5992L15.8923 16.631C15.8923 16.631 14.7572 16.0011 13.2438 16.0011C11.0998 16.0011 10.9737 17.261 10.9737 17.639C10.9737 19.4029 15.7662 20.1588 15.7662 24.4426C15.7662 27.8444 13.6222 29.9863 10.7214 29.9863C7.3162 29.9863 5.55054 27.8444 5.55054 27.8444L6.43337 24.8206C6.43337 24.8206 8.19904 26.3325 9.71247 26.3325C10.7214 26.3325 11.0998 25.5765 11.0998 24.9466C11.0998 22.5527 7.19009 22.4267 7.19009 18.5209C7.19009 15.2451 9.58635 12.0953 14.2528 12.0953C16.3968 11.9693 17.2796 12.5992 17.2796 12.5992Z" fill="#FFFFFE"/>
<path d="M44.5187 20.0331C43.3836 19.4031 42.8792 18.8992 42.8792 18.2692C42.8792 17.3872 43.6359 16.8833 44.8971 16.8833C46.2844 16.8833 47.5456 17.5132 47.5456 17.5132L48.5545 14.4894C48.5545 14.4894 47.6717 13.7334 45.0232 13.7334C41.2396 13.7334 38.7172 15.8753 38.7172 18.8992C38.7172 20.6631 39.9784 21.923 41.4918 22.8049C42.753 23.5609 43.2575 24.0649 43.2575 24.8208C43.2575 25.5768 42.6269 26.3327 41.3657 26.3327C39.6001 26.3327 37.8344 25.4508 37.8344 25.4508L36.8254 28.4746C36.8254 28.4746 38.3389 29.4826 40.9874 29.4826C44.7709 29.4826 47.5456 27.5927 47.5456 24.1909C47.5456 22.301 46.1582 20.915 44.5187 20.0331ZM59.7791 13.6074C57.8873 13.6074 56.3739 14.4894 55.2388 15.8753L56.8784 7.30779H52.5903L48.4284 29.1046H52.7164L54.1038 21.671C54.6082 18.8992 56.1217 17.1352 57.509 17.1352C58.5179 17.1352 58.8963 17.7652 58.8963 18.7732C58.8963 19.4031 58.8963 20.0331 58.7702 20.6631L57.1306 29.2306H61.4187L63.0582 20.4111C63.1843 19.5291 63.3104 18.3952 63.3104 17.6392C63.3104 15.1194 62.0493 13.6074 59.7791 13.6074ZM70.7515 26.0808C69.238 26.0808 68.7336 24.8208 68.7336 23.3089C68.7336 20.915 69.9948 16.8833 72.2649 16.8833C73.7783 16.8833 74.2828 18.1432 74.2828 19.4031C74.2828 22.175 73.0216 26.0808 70.7515 26.0808ZM72.8955 13.6074C67.7246 13.6074 64.3194 18.2692 64.3194 23.4349C64.3194 26.7107 66.3373 29.3566 70.247 29.3566C75.2918 29.3566 78.697 24.8208 78.697 19.5291C78.697 16.5053 76.9313 13.6074 72.8955 13.6074ZM85.5074 26.2067C84.3723 26.2067 83.7417 25.5768 83.7417 25.5768L84.4985 21.545C85.0029 18.8992 86.3902 17.1352 87.9037 17.1352C89.1649 17.1352 89.6693 18.3952 89.6693 19.5291C89.5432 22.301 87.9037 26.2067 85.5074 26.2067ZM89.6693 13.6074C86.7686 13.6074 85.129 16.1273 85.129 16.1273L85.3813 13.8594H81.5977C81.4716 15.3713 81.0932 17.7652 80.7149 19.5291L77.688 35.1523H81.9761L83.1111 28.8526H83.2373C83.2373 28.8526 84.1201 29.3566 85.7596 29.3566C90.8044 29.3566 94.0835 24.1909 94.0835 19.0251C94.0835 16.2533 92.8223 13.6074 89.6693 13.6074ZM100.137 7.55977C98.7499 7.55977 97.741 8.69371 97.741 10.0796C97.741 11.3396 98.4977 12.2215 99.7589 12.2215C101.146 12.2215 102.281 11.3396 102.281 9.70166C102.281 8.44173 101.398 7.55977 100.137 7.55977ZM94.2096 29.1046H98.4977L101.398 13.9854H97.1104L94.2096 29.1046ZM112.245 13.9854H109.218L109.344 13.2295C109.596 11.7175 110.479 10.4576 111.866 10.4576C112.623 10.4576 113.254 10.7096 113.254 10.7096L114.136 7.30779C114.136 7.30779 113.38 6.92981 111.866 6.92981C110.353 6.92981 108.839 7.30779 107.704 8.31573C106.191 9.57566 105.56 11.3396 105.182 13.1035L105.056 13.8594H103.038L102.407 17.1352H104.425L102.155 29.1046H106.443L108.713 17.1352H111.614L112.245 13.9854ZM122.46 13.9854C122.46 13.9854 119.812 20.6631 118.551 24.3169C118.424 23.1829 117.542 13.9854 117.542 13.9854H113.001L115.524 27.8447C115.524 28.0966 115.524 28.3486 115.398 28.6006C114.893 29.6086 114.01 30.4905 113.127 31.1205C112.371 31.7504 111.362 32.1284 110.731 32.3804L111.866 36.0342C112.749 35.9082 114.515 35.1523 116.028 33.7663C117.92 32.0024 119.812 29.1046 121.577 25.3248L126.748 14.1114L122.46 13.9854Z" fill="#1A1919"/>
</svg>

<svg width="127" height="37" viewBox="0 0 127 37" fill="none" xmlns="http://www.w3.org/2000/svg"><path d="M15.132 1.26c.253 0 .379.126.63.252-1.513.63-3.026 2.268-3.783 5.796l-2.774.756c.883-2.52 2.648-6.804 5.927-6.804zm1.388 1.26c.252.756.504 1.638.504 3.024v.252l-3.657 1.008c.756-2.646 2.018-3.78 3.153-4.284zm3.279 2.268l-1.64.504v-.378c0-1.134-.126-2.016-.378-2.772.883.252 1.64 1.386 2.018 2.646zm8.198 2.016a.271.271 0 0 0-.253-.252c-.252 0-2.9-.252-2.9-.252s-1.892-1.89-2.145-2.016c-.252-.252-.63-.126-.756-.126 0 0-.379.126-1.01.378-.63-1.764-1.765-3.402-3.657-3.402h-.126A2.231 2.231 0 0 0 15.258.126C10.718 0 8.574 5.67 7.818 8.568c-1.01.252-2.018.63-3.154 1.008-1.009.252-1.009.378-1.135 1.26-.126.63-2.648 20.537-2.648 20.537l20.053 3.78 10.846-2.395S27.996 7.056 27.996 6.804z" fill="#8DB849"/><path d="M27.617 6.551c-.126 0-2.775-.252-2.775-.252s-1.892-1.89-2.144-2.016c-.126-.126-.126-.126-.252-.126l-1.514 30.995 10.847-2.394S27.995 7.055 27.995 6.803c0-.126-.252-.252-.378-.252z" fill="#5A863E"/><path d="M17.28 12.6l-1.388 4.031s-1.135-.63-2.648-.63c-2.144 0-2.27 1.26-2.27 1.638 0 1.764 4.792 2.52 4.792 6.804 0 3.401-2.144 5.543-5.045 5.543-3.405 0-5.17-2.142-5.17-2.142l.882-3.023s1.766 1.511 3.28 1.511c1.008 0 1.387-.756 1.387-1.385 0-2.394-3.91-2.52-3.91-6.426 0-3.276 2.396-6.426 7.063-6.426 2.144-.126 3.027.504 3.027.504z" fill="#FFFFFE"/><path d="M44.519 20.033c-1.135-.63-1.64-1.134-1.64-1.764 0-.882.757-1.386 2.018-1.386 1.387 0 2.649.63 2.649.63l1.008-3.024s-.882-.756-3.53-.756c-3.784 0-6.307 2.142-6.307 5.166 0 1.764 1.261 3.024 2.775 3.906 1.261.756 1.766 1.26 1.766 2.016s-.631 1.512-1.892 1.512c-1.766 0-3.532-.882-3.532-.882l-1.009 3.024s1.514 1.008 4.162 1.008c3.784 0 6.559-1.89 6.559-5.292 0-1.89-1.388-3.276-3.027-4.158zm15.26-6.426c-1.892 0-3.405.882-4.54 2.268l1.64-8.567H52.59l-4.162 21.797h4.288l1.388-7.434c.504-2.772 2.018-4.536 3.405-4.536 1.009 0 1.387.63 1.387 1.638 0 .63 0 1.26-.126 1.89l-1.64 8.568h4.289l1.64-8.82c.125-.882.251-2.016.251-2.772 0-2.52-1.26-4.032-3.53-4.032zm10.972 12.474c-1.513 0-2.017-1.26-2.017-2.772 0-2.394 1.26-6.426 3.53-6.426 1.514 0 2.019 1.26 2.019 2.52 0 2.772-1.261 6.678-3.532 6.678zm2.144-12.474c-5.17 0-8.576 4.662-8.576 9.828 0 3.276 2.018 5.922 5.928 5.922 5.045 0 8.45-4.536 8.45-9.828 0-3.024-1.766-5.922-5.802-5.922zm12.612 12.6c-1.135 0-1.765-.63-1.765-.63l.757-4.032c.504-2.646 1.891-4.41 3.405-4.41 1.26 0 1.765 1.26 1.765 2.394-.126 2.772-1.765 6.678-4.162 6.678zm4.162-12.6c-2.9 0-4.54 2.52-4.54 2.52l.252-2.268h-3.783c-.126 1.512-.505 3.906-.883 5.67l-3.027 15.623h4.288l1.135-6.3h.126s.883.505 2.523.505c5.044 0 8.323-5.166 8.323-10.332 0-2.772-1.26-5.418-4.414-5.418zm10.468-6.047c-1.387 0-2.396 1.134-2.396 2.52 0 1.26.757 2.142 2.018 2.142 1.387 0 2.522-.882 2.522-2.52 0-1.26-.883-2.142-2.144-2.142zM94.21 29.105h4.288l2.9-15.12H97.11l-2.9 15.12zm18.035-15.12h-3.027l.126-.755c.252-1.513 1.135-2.772 2.522-2.772a4.17 4.17 0 0 1 1.388.252l.882-3.402s-.756-.378-2.27-.378c-1.513 0-3.027.378-4.162 1.386-1.513 1.26-2.144 3.024-2.522 4.787l-.126.756h-2.018l-.631 3.276h2.018l-2.27 11.97h4.288l2.27-11.97h2.901l.631-3.15zm10.215 0s-2.648 6.678-3.909 10.332c-.127-1.134-1.009-10.332-1.009-10.332h-4.541l2.523 13.86c0 .252 0 .504-.126.756-.505 1.008-1.388 1.89-2.271 2.52-.756.63-1.765 1.007-2.396 1.26l1.135 3.653c.883-.126 2.649-.882 4.162-2.268 1.892-1.764 3.784-4.661 5.549-8.441l5.171-11.214-4.288-.126z" fill="#1A1919"/></svg>
